icons/pkl-light.svg

<svg width="256" height="256" viewBox="0 0 256 256" fill="none" xmlns="http://www.w3.org/2000/svg">
<g clip-path="url(#clip0_33_498)">
<path d="M196 0H60C26.8629 0 0 26.8629 0 60V196C0 229.137 26.8629 256 60 256H196C229.137 256 256 229.137 256 196V60C256 26.8629 229.137 0 196 0Z" fill="#F4F2ED"/>
<path d="M178.268 69.9061L183.1 43.8441C175.763 39.0054 167.789 35.1502 159.418 32.3768L141.581 52.1446C132.892 50.571 123.983 50.512 115.274 51.9873L97.656 31.9834C89.2448 34.6388 81.2313 38.3956 73.8143 43.1557L78.3082 69.2767C71.6469 75.0202 66.0394 81.8652 61.7642 89.5363L34.9994 90.6771C31.8576 98.8399 29.8294 107.376 28.9744 116.07L52.4383 128.875C52.8161 137.608 54.7449 146.204 58.1253 154.288L42.3369 175.708C46.8308 183.222 52.319 190.126 58.6423 196.204L83.3987 186.054C90.5373 191.208 98.5508 195.083 107.042 197.502L114.121 223.072C122.87 224.292 131.738 224.331 140.488 223.23L147.885 197.758C156.415 195.456 164.469 191.68 171.667 186.605L196.284 197.069C202.687 191.07 208.274 184.245 212.848 176.77L197.338 155.154C200.818 147.128 202.866 138.533 203.363 129.819L226.986 117.31C226.23 108.616 224.321 100.04 221.279 91.8376L194.534 90.3624C190.358 82.652 184.85 75.7283 178.249 69.9061H178.268Z" fill="#6B9543"/>
<path d="M129.511 186.802C164.094 186.802 192.128 159.071 192.128 124.863C192.128 90.6547 164.094 62.9236 129.511 62.9236C94.929 62.9236 66.8945 90.6547 66.8945 124.863C66.8945 159.071 94.929 186.802 129.511 186.802Z" fill="#E9F4CA"/>
<path d="M85.2479 154.013C101.593 181.983 134.602 191.326 126.707 133.419C126.091 128.915 123.605 124.863 119.847 122.247C70.8116 88.1005 67.4113 123.506 85.2479 154.013ZM115.91 137.786C117.302 137.451 118.376 138.041 118.873 139.418C125.375 157.435 113.703 163.985 105.53 159.953C98.0337 156.255 98.0337 142.231 115.91 137.786ZM111.655 127.066C112.609 128.187 112.589 129.406 111.595 130.41C98.7893 143.529 86.5006 136.507 86.9977 128.266C87.5346 119.257 99.1075 112.51 111.655 127.066Z" fill="#C8D987"/>
<path d="M118.745 163.101C126.012 158.951 125.657 144.887 117.953 131.688C110.249 118.489 98.1134 111.153 90.8472 115.303C83.5811 119.453 83.9359 133.517 91.6398 146.716C99.3436 159.915 111.479 167.251 118.745 163.101Z" fill="#C8D987"/>
<path d="M126.111 72.3649C93.4602 72.3846 68.7635 95.9879 123.407 118.175C127.662 119.906 132.434 119.788 136.61 117.88C191.034 92.9588 161.724 72.3256 126.091 72.3452L126.111 72.3649ZM124.997 106.747C124.6 108.104 123.546 108.734 122.094 108.478C103.065 105.036 103.164 91.759 110.78 86.7826C117.759 82.2193 130.048 89.2216 124.997 106.767V106.747ZM136.511 108.458C135.059 108.714 133.985 108.104 133.607 106.727C128.517 89.202 140.806 82.18 147.785 86.7236C155.401 91.7 155.54 104.977 136.511 108.439V108.458Z" fill="#C8D987"/>
<path d="M129.292 111.546C144.7 111.546 157.191 104.818 157.191 96.5189C157.191 88.2195 144.7 81.4915 129.292 81.4915C113.885 81.4915 101.394 88.2195 101.394 96.5189C101.394 104.818 113.885 111.546 129.292 111.546Z" fill="#C8D987"/>
<path d="M177.175 148.21C193.48 120.221 185.168 87.2742 138.4 122.994C134.761 125.767 132.454 129.918 132.057 134.461C126.668 193.548 159.378 178.757 177.175 148.23V148.21ZM147.626 130.055C146.632 129.033 146.612 127.813 147.567 126.712C160.094 112.136 171.667 118.863 172.224 127.872C172.741 136.133 160.452 143.155 147.626 130.055ZM140.368 139.064C140.865 137.687 141.939 137.097 143.331 137.431C161.207 141.837 161.227 155.881 153.751 159.579C145.598 163.611 133.906 157.101 140.368 139.064Z" fill="#C8D987"/>
<path d="M167.572 146.367C175.276 133.168 175.63 119.104 168.364 114.955C161.098 110.805 148.963 118.141 141.259 131.34C133.555 144.539 133.2 158.603 140.466 162.753C147.732 166.902 159.868 159.567 167.572 146.367Z" fill="#C8D987"/>
</g>
<defs>
<clipPath id="clip0_33_498">
<rect width="256" height="256" fill="white"/>
</clipPath>
</defs>
</svg>

<svg xmlns="http://www.w3.org/2000/svg" width="256" height="256" fill="none"><g clip-path="url(#clip0_33_498)"><path fill="#F4F2ED" d="M196 0H60C26.863 0 0 26.863 0 60v136c0 33.137 26.863 60 60 60h136c33.137 0 60-26.863 60-60V60c0-33.137-26.863-60-60-60"/><path fill="#6B9543" d="m178.268 69.906 4.832-26.062a100.4 100.4 0 0 0-23.682-11.467l-17.837 19.768a76.2 76.2 0 0 0-26.307-.158L97.656 31.983a99.7 99.7 0 0 0-23.842 11.173l4.494 26.12a74.9 74.9 0 0 0-16.544 20.26L35 90.677a97.2 97.2 0 0 0-6.025 25.393l23.464 12.805a74.2 74.2 0 0 0 5.687 25.413l-15.788 21.42a98.8 98.8 0 0 0 16.305 20.496l24.757-10.15a76 76 0 0 0 23.643 11.448l7.079 25.57a100.3 100.3 0 0 0 26.367.158l7.397-25.472a75.3 75.3 0 0 0 23.782-11.153l24.617 10.464a97.8 97.8 0 0 0 16.564-20.299l-15.51-21.616a74.4 74.4 0 0 0 6.025-25.335l23.623-12.509a97.6 97.6 0 0 0-5.707-25.472l-26.745-1.476a74.7 74.7 0 0 0-16.285-20.456z"/><path fill="#E9F4CA" d="M129.511 186.802c34.583 0 62.617-27.731 62.617-61.939s-28.034-61.94-62.617-61.94-62.616 27.732-62.616 61.94 28.034 61.939 62.616 61.939"/><path fill="#C8D987" d="M85.248 154.013c16.345 27.97 49.354 37.313 41.459-20.594a16.32 16.32 0 0 0-6.86-11.172c-49.035-34.146-52.436 1.259-34.6 31.766m30.662-16.227c1.392-.335 2.466.255 2.963 1.632 6.502 18.017-5.17 24.567-13.343 20.535-7.496-3.698-7.496-17.722 10.38-22.167m-4.255-10.72c.954 1.121.934 2.34-.06 3.344-12.806 13.119-25.094 6.097-24.597-2.144.537-9.009 12.11-15.756 24.657-1.2"/><path fill="#C8D987" d="M118.745 163.101c7.267-4.15 6.912-18.214-.792-31.413s-19.84-20.535-27.106-16.385-6.911 18.214.793 31.413 19.839 20.535 27.105 16.385m7.366-90.736c-32.65.02-57.348 23.623-2.704 45.81a16.65 16.65 0 0 0 13.203-.295c54.424-24.921 25.114-45.554-10.519-45.535zm-1.114 34.382c-.397 1.357-1.451 1.987-2.903 1.731-19.029-3.442-18.93-16.719-11.314-21.695 6.979-4.564 19.268 2.439 14.217 19.984zm11.514 1.711c-1.452.256-2.526-.354-2.904-1.731-5.09-17.525 7.199-24.547 14.178-20.003 7.616 4.976 7.755 18.253-11.274 21.715z"/><path fill="#C8D987" d="M129.292 111.546c15.408 0 27.899-6.728 27.899-15.027 0-8.3-12.491-15.028-27.899-15.028-15.407 0-27.898 6.728-27.898 15.028 0 8.299 12.491 15.027 27.898 15.027m47.883 36.664c16.305-27.989 7.993-60.936-38.775-25.216-3.639 2.773-5.946 6.924-6.343 11.467-5.389 59.087 27.321 44.296 45.118 13.769zm-29.549-18.155c-.994-1.022-1.014-2.242-.059-3.343 12.527-14.576 24.1-7.849 24.657 1.16.517 8.261-11.772 15.283-24.598 2.183m-7.258 9.009c.497-1.377 1.571-1.967 2.963-1.633 17.876 4.406 17.896 18.45 10.42 22.148-8.153 4.032-19.845-2.478-13.383-20.515"/><path fill="#C8D987" d="M167.572 146.367c7.704-13.199 8.058-27.263.792-31.412-7.266-4.15-19.401 3.186-27.105 16.385s-8.059 27.263-.793 31.413 19.402-3.186 27.106-16.386"/></g><defs><clipPath id="clip0_33_498"><path fill="#fff" d="M0 0h256v256H0z"/></clipPath></defs></svg>
